src/icons/turnstile.svg

<svg width="54" height="54" viewBox="0 0 54 54" xmlns="http://www.w3.org/2000/svg"><path d="M27.3146 7.26134C22.346 7.11258 17.5089 8.87182 13.7968 12.1778L15.0275 5.43472L11.8336 4.85264L9.67207 16.6889L21.5124 18.8498L22.0945 15.6559L16.0144 14.5463C18.927 11.9921 22.6598 10.5682 26.5336 10.5337C30.4073 10.4993 34.1648 11.8565 37.1224 14.3585C40.08 16.8605 42.0412 20.3411 42.6493 24.167C43.2573 27.9929 42.4718 31.91 40.4356 35.2057C38.3994 38.5013 35.2479 40.9566 31.5543 42.1248C27.8607 43.293 23.8704 43.0965 20.3094 41.5711C16.7485 40.0457 13.8534 37.2927 12.1508 33.8129C10.4482 30.3332 10.0513 26.3579 11.0323 22.6102L7.89023 21.7861C6.86457 25.6942 7.0797 29.8247 8.50582 33.6052C9.93194 37.3856 12.4985 40.629 15.8498 42.8861C19.2012 45.1431 23.1715 46.302 27.2108 46.2023C31.2501 46.1025 35.1584 44.7491 38.3943 42.3294C41.6302 39.9098 44.0336 36.5436 45.2714 32.6974C46.5092 28.8511 46.5202 24.7151 45.3029 20.8623C44.0856 17.0095 41.7003 13.6306 38.4773 11.1938C35.2544 8.75687 31.3533 7.38261 27.3146 7.26134Z"></path><path fill-rule="evenodd" clip-rule="evenodd" d="M38.8474 21.9189L35.9285 19L24.4761 30.4524L19.923 25.8994L17 28.8224L24.4833 36.3056L27.4063 33.3826L27.3949 33.3713L38.8474 21.9189Z"></path></svg>

<svg xmlns="http://www.w3.org/2000/svg" width="54" height="54" viewBox="0 0 54 54"><path d="M27.315 7.261a19.45 19.45 0 0 0-13.518 4.917l1.23-6.743-3.193-.582-2.162 11.836 11.84 2.16.582-3.193-6.08-1.11a16.173 16.173 0 1 1-4.982 8.064l-3.142-.824A19.478 19.478 0 1 0 27.315 7.261"/><path fill-rule="evenodd" d="M38.847 21.919 35.928 19 24.477 30.452 19.923 25.9 17 28.822l7.483 7.484 2.923-2.923-.011-.012z" clip-rule="evenodd"/></svg>
